X: 37246
T: Sixpenny Money
R: jig
M: 6/8
K: Dmajor
|:fAA fAA|BAG FGE|D3 AFA|dfd e2d|
fAA fAA|BAG FGE|D3 AFA|dfd e2 d:|
|:f3 g3|afd ecA|f3 g3|afd e2 d|
fga gfg|afd ecA|A3 AFA|dfd e2 d:|

